X:10
T:Earl Grey
R:strathspey
C:James Hill (1811-1853), Northumberland
Z:id:hn-strathspey-10
M:C
L:1/8
K:A
A>BA>E F<AE>c | d>B d/c/B/A/ G<BB>c | A>BA>E F<AE>c |1 (3def (3efg (3aed (3cdB :|
[2 (3def (3efg a<AA>g || a>Ag>A f>Ae>A | d>B d/c/B/A/ G<BB>g |
a>Ag>A f>Ae>c | (3def (3efg a<AA>g | a>Ag>A f>Ae>A |
d>B d/c/B/A/ G<BB>E | A>BA>E F<AEc | (3def (3efg (3aed (3cdB ||

